X: 16151
T: Green Island, The
R: hornpipe
M: 4/4
K: Dmajor
|:(3ABc|dcdA Bcde|gfed cBAG|FAdf gfed|cedB A2 Bc|
dcdf efge|agfe dcBA|dfeg faeg|f2 dc d2:|
|:fg|agfe defa|bagf e2 ed|cAeA gfed|cedB A2 Bc|
dcdf efge|agfe dcBA|(3Bcd ce dfeg|f2 dc d2:|

